!!!OTL: GUTE NACHT UND FROEHLICH LEBEN
!!!ARE: Europa, Mitteleuropa, Deutschland
!!!SCT: F0772
!!!YEM: Copyright 1995, estate of Helmut Schaffrath.
**kern
*ICvox
*Ivox
*M4/4
*k[f#]
*G:
{8dd
8b
=1
4.g
8b
4.a
8cc
=2
4cc
4b
4r}
{8.b
16cc
=3
4.dd
8b
8ee
8dd
8cc
8b
=4
4b
4a
4r}
{8aa
8ff#
=5
4.dd
8ff#
4.ee
8gg
=6
4gg
4ff#
4r}
{8a
8a
=7
4b
8gg
8ee
4dd
4cc#
=8
2dd
4r}
{8dd
8dd
=9
8gg
8ff#
8ee
8dd
8gg
8ff#
8ee
8dd
=10
8dd
8cc
4cc
4r}
{8b
8cc
=11
4.dd
8b
8ee
8dd
8cc
8b
=12
4b
4a
4r}
{8.dd
16ee
=13
4.dd
8b
8dd
8cc
8b
8cc
=14
8dd
8b
4g
4r}
{8g
8b
=15
8b
8a
8cc
8a
8a
8g
8g
8f#
=16
2g
4r}
==
!!!AGN: Geselligkeits -, Tageszeiten - Lied, Abend; Abschied
!!!ONB: ESAC (Essen Associative Code) Database: FINK
!!!AMT: simple quadruple
!!!AIN: vox
!!!EED: Helmut Schaffrath
!!!EEV: 1.0
*-
